X:48
T:"Eugene Teevan's Jig"
T: (For Eugene Teevan)
C:Jig composed by Davy Rogers
L:1/8
Q:180
M:6/8
K:D
B |: AFF D/E/FB | AFE DGA | BGF EAd | ecB Ade |
fAG eAF | BAB Adf | ged efe |1 dec d2B :|2 dec dBc |:
d/e/fd cec | BdB AFA | Bdc Acd | BGF EBc |
d/e/fd cef | gcf ega | gac ABc |1 dec dBc :|2 dec d2 ||



